X:1
T:Come Out from Among Them
T:Come Out from Among Them
T:Barney E. Warren, pub.1893
T:B. E. W., pub.1893
T:PUBLIC DOMAIN
T:PUBLIC DOMAIN
C:Barney E. Warren, pub.1893
Z:B. E. W., pub.1893
Z:PUBLIC DOMAIN
%%score ( 1 2 ) ( 3 4 )
L:1/8
Q:1/4=70
M:2/4
K:G
V:1 treble nm="Treble"
V:2 treble 
V:3 bass nm="Bass"
V:4 bass 
V:1
 [B,D] [B,G] [DB] [DG] | [CE] [CG] [CE] [B,D] | [DG] [GB] [Gd] [GB] | G [GB] [FA]2 | %4
w: 1.~Have you heard the|trum- pet sound- ing?|Have you heard the|an- gel’s call?|
w: 2.~Sound the tid- ings|o’er cre- a- tion,|Let God’s faith- ful|chil- dren know;|
w: 3.~Hear that voice from|heav- en, broth- er,|Heed the warn- ing,|come to- day;|
w: 4.~He has said, “My|peo- ple know Me,|And My voice they|will o- bey;|
 [B,D] [B,G] [DB] [DG] | [CE] [CG] [CE] [B,D] | [EG] [Ge] [Gd] [DB] | D [DA] [DG] || %8
w: Flee from sin and|sect con- fu- sion,|Come to Zi- on,|one and all.|
w: Sin- ful sects and|all di- vi- sion,|Se- par- ate them|here be- low.|
w: Leave the names and|creeds of Bab- ylon,|Take the ho- ly|Bi- ble way.|
w: So, if you are|Mine, you’ll prove it|Just by do- ing|what I say.”|
[M:6/8]"^Refrain" [Gd] | [Gd]3 [Gd] [G^c] [Gd] | [DB] [DG]2 [DG]2 [DG] | [EG]3 [EG] [EF] [EG] | %12
w: Come|out * from a-|mong them, * Come|out * from a-|
w: ||||
w: ||||
w: ||||
 [CE] [B,D]2 [B,D]2 [B,D] | [DG] [DB][Gd] [Gd] [GB]G | [FA]3 [FA]2 | [Fd] | [Gd]3 [Gd] [G^c] [Gd] | %17
w: mong them, * Oh,|do not par- take of her|sins; *|Come|out * from a-|
w: |||||
w: |||||
w: |||||
 [DB] [DG]2 [DG]2 [DG] | [EG]3 [EG] [EF] [EG] | [CE] [B,D]2 [B,D]2 [B,D]/[B,D]/ | %20
w: mong them, * Come|out * from a-|mong them, * For her|
w: |||
w: |||
w: |||
 [DG] [DA] [DB] [CA] [B,G] [CA] | [B,G]3 [B,G]2 z |] %22
w: judg- ment al- read- y be-|gins. *|
w: ||
w: ||
w: ||
V:2
 x4 | x4 | x4 | G z z2 | x4 | x4 | x4 | D z z ||[M:6/8] x | x6 | x6 | x6 | x6 | z3 z z G | x5 | x | %16
 x6 | x6 | x6 | x6 | x6 | x6 |] %22
V:3
 [G,,G,] [G,,G,] [G,,G,] [B,,G,] | [C,G,] [C,E,] [G,,G,] [G,,G,] | [G,B,] [G,D] [G,B,] [G,D] | %3
 [B,D] [G,D] [D,D]2 | [G,,G,] [G,,G,] [G,,G,] [B,,G,] | [C,G,] [C,E,] [G,,G,] [G,,G,] | %6
 [C,C] [C,C] [D,B,] [D,G,] | [D,A,] [D,C] [G,,G,B,] ||[M:6/8] [G,B,] | %9
 [G,B,]3 [G,B,] [G,^A,] [G,B,] | G, [G,B,]2 [G,B,]2 [G,B,] | [C,C]3 [C,C] [C,C] [C,C] | %12
 [G,,G,] [G,,G,]2 [G,,G,]2 G, | [G,B,] [G,B,] [G,B,] [G,B,] [G,D] [E,^C] | [D,D]3 [D,D]2 | [D,C] | %16
 [G,B,]3 [G,B,] [G,^A,] [G,B,] | G, [G,B,]2 [G,B,]2 [G,B,] | [C,C]3 [C,C] [C,C] [C,C] | %19
 [G,,G,] [G,,G,]2 [G,,G,]2 [G,,G,]/[G,,G,]/ | [D,G,] [D,F,][D,G,] [D,G,] [D,G,]D, | %21
 [G,,D,]3 [G,,D,]2 z |] %22
V:4
 x4 | x4 | x4 | x4 | x4 | x4 | x4 | x3 ||[M:6/8] x | x6 | G, z2 z3 | x6 | z3 z2 G, | x6 | x5 | x | %16
 x6 | G, z2 z3 | x6 | x6 | z3 z z D, | x6 |] %22

